src/actions/24/entrance_animations.svg

<svg viewBox="0 0 24 24" xmlns="http://www.w3.org/2000/svg">
 <defs>
  <style type="text/css">.ColorScheme-Text {
        color:#2e3440;
      }</style>
 </defs>
 <g transform="translate(1,1)">
  <path class="ColorScheme-Text" d="m11 3 3 6h5l-4 4 1 6-5-3-5 3 1-6-4-4h5l3-6zm-2 0v1h-6v-1h6zm-1 2v1h-5v-1h5zm-1 2v1h-4v-1h4zm-2 5v1h-2v-1h2zm1 2v1h-3v-1h3zm-1 2v1h-2v-1h2zm0 2v1h-2v-1h2z" fill="currentColor"/>
 </g>
</svg>

<svg xmlns="http://www.w3.org/2000/svg" viewBox="0 0 24 24">
  <defs id="defs3051">
    <style type="text/css" id="current-color-scheme">
      .ColorScheme-Text {
        color:#2e3440;
      }
      </style>
  </defs><g transform="translate(1,1)">
 <path 
     style="fill:currentColor;fill-opacity:1;stroke:none" 
     d="m 11,3 3,6 5,0 -4,4 1,6 L 11,16 6,19 7,13 3,9 8,9 11,3 Z M 9,3 9,4 3,4 3,3 9,3 Z M 8,5 8,6 3,6 3,5 8,5 Z M 7,7 7,8 3,8 3,7 7,7 Z m -2,5 0,1 -2,0 0,-1 2,0 z m 1,2 0,1 -3,0 0,-1 3,0 z m -1,2 0,1 -2,0 0,-1 2,0 z m 0,2 0,1 -2,0 0,-1 2,0 z"
	 class="ColorScheme-Text"
     />
</g></svg>
